;FLAVOR:Marlin
;TIME:18940
;Filament used: 10.2909m
;Layer height: 0.1
;Generated with Cura_SteamEngine 3.4.1
M190 S60
M104 S240
M109 S240
M82 ;absolute extrusion mode
;Start GCode
G21 ;metric values
G90 ;absolute positioning
M82 ;set extruder to absolute mode
M107 ;start with the fan off
G28 X0 Y0 ;move X/Y to min endstops
G28 Z0 ;move Z to min endstops
G1 Z15.0 ;move the platform down 15mm
G92 E0 ;zero the extruded length
G1 F200 E3 ;extrude 3mm of feed stock
G92 E0 ;zero the extruded length again
M117 Printing…
G92 E0
G1 F1500 E-6.5
;LAYER_COUNT:421
;LAYER:0
M107
G0 F1800 X35.072 Y62.025 Z0.1
;TYPE:SKIRT
G1 F1500 E0
G1 F600 X35.542 Y61.829 E0.01059
G1 X36.037 Y61.71 E0.02117
G1 X36.55 Y61.669 E0.03187
G1 X216.532 Y61.67 E3.77326
G1 X217.04 Y61.71 E3.78385
G1 X217.535 Y61.829 E3.79443
G1 X218.006 Y62.024 E3.80503
G1 X218.441 Y62.29 E3.81563
G1 X218.828 Y62.62 E3.8262
G1 X219.16 Y63.007 E3.8368
G1 X219.426 Y63.442 E3.8474
G1 X219.622 Y63.912 E3.85799
G1 X219.741 Y64.407 E3.86857
G1 X219.782 Y64.92 E3.87927
G1 X219.782 Y138.901 E5.41715
G1 X219.742 Y139.409 E5.42775
G1 X219.623 Y139.904 E5.43833
G1 X219.428 Y140.375 E5.44893
G1 X219.162 Y140.81 E5.45953
G1 X218.832 Y141.197 E5.4701
G1 X218.445 Y141.529 E5.4807
G1 X218.01 Y141.795 E5.4913
G1 X217.54 Y141.991 E5.50188
G1 X217.045 Y142.11 E5.51247
G1 X216.532 Y142.151 E5.52316
G1 X36.55 Y142.151 E9.26455
G1 X36.042 Y142.111 E9.27515
G1 X35.547 Y141.992 E9.28573
G1 X35.076 Y141.797 E9.29633
G1 X34.641 Y141.531 E9.30693
G1 X34.254 Y141.201 E9.3175
G1 X33.922 Y140.814 E9.3281
G1 X33.656 Y140.379 E9.3387
G1 X33.46 Y139.909 E9.34928
G1 X33.341 Y139.414 E9.35987
G1 X33.3 Y138.901 E9.37056
G1 X33.3 Y64.919 E10.90847
G1 X33.34 Y64.411 E10.91906
G1 X33.459 Y63.916 E10.92965
G1 X33.654 Y63.445 E10.94024
G1 X33.92 Y63.01 E10.95084
G1 X34.25 Y62.623 E10.96142
G1 X34.637 Y62.291 E10.97202
G1 X35.072 Y62.025 E10.98261
G1 F1500 E4.48261
G0 F1800 X37.329 Y64.281
G0 X37.36 Y64.312
G0 X46.664 Y73.614
G0 X46.695 Y73.645
G0 X46.72 Y73.671
G0 X45.719 Y72.671
G0 X38.755 Y79.584
G0 X38.755 Y124.236
G0 X51.215 Y136.696
G0 X154.361 Y136.73
G0 X154.291 Y136.66
;TYPE:WALL-INNER
G1 F1500 E10.98261
G1 F600 X154.291 Y132.659 E11.06579
G1 X158.791 Y132.659 E11.15933
G1 X158.791 Y136.66 E11.2425
G1 X182.291 Y136.66 E11.73101
G1 X182.291 Y114.16 E12.19873
G1 X179.291 Y114.16 E12.26109
G1 X179.291 Y89.66 E12.77039
G1 X182.291 Y89.66 E12.83275
G1 X182.291 Y67.16 E13.30047
G1 X158.791 Y67.16 E13.78898
G1 X158.791 Y71.16 E13.87213
G1 X154.291 Y71.16 E13.96567
G1 X154.291 Y67.16 E14.04883
G1 X51.23 Y67.16 E16.19121
G1 X38.791 Y79.599 E16.5569
G1 X38.791 Y124.221 E17.48448
G1 X51.23 Y136.66 E17.85016
G1 X154.291 Y136.66 E19.99255
G0 F1800 X154.361 Y136.73
G0 X182.319 Y136.688
G0 X189.22 Y121.937
G0 X189.28 Y121.558
G0 X189.338 Y120.6
G0 X189.24 Y120.619
G1 F600 X189.165 Y120.342 E19.99852
G1 X189.034 Y119.995 E20.00623
G1 X188.931 Y119.801 E20.01079
G1 X188.793 Y119.581 E20.01619
G1 X188.67 Y119.421 E20.02039
G1 X188.538 Y119.267 E20.0246
G1 X188.348 Y119.088 E20.03003
G1 X188.192 Y118.959 E20.03424
G1 X188.021 Y118.841 E20.03856
G1 X187.8 Y118.714 E20.04386
G1 X187.61 Y118.625 E20.04822
G1 X187.419 Y118.554 E20.05245
G1 X187.177 Y118.485 E20.05768
G1 X186.974 Y118.443 E20.06199
G1 X186.766 Y118.419 E20.06635
G1 X186.511 Y118.412 E20.07165
G1 X186.313 Y118.42 E20.07577
G1 X186.105 Y118.443 E20.08012
G1 X185.838 Y118.502 E20.0858
G1 X185.478 Y118.621 E20.09368
G1 X185.233 Y118.742 E20.09936
G1 X185.058 Y118.844 E20.10358
G1 X184.888 Y118.962 E20.10788
G1 X184.692 Y119.127 E20.1132
G1 X184.546 Y119.267 E20.11741
G1 X184.407 Y119.425 E20.12178
G1 X184.258 Y119.63 E20.12705
G1 X184.15 Y119.8 E20.13124
G1 X184.053 Y119.986 E20.1356
G1 X183.975 Y120.173 E20.13981
G1 X183.895 Y120.412 E20.14505
G1 X183.845 Y120.616 E20.14942
G1 X183.814 Y120.817 E20.15364
G1 X183.792 Y121.084 E20.15921
G1 X183.807 Y121.467 E20.16718
G1 X183.856 Y121.75 E20.17315
G1 X183.96 Y122.115 E20.18104
G1 X184.07 Y122.364 E20.1867
G1 X184.163 Y122.543 E20.19089
G1 X184.275 Y122.719 E20.19523
G1 X184.433 Y122.924 E20.20061
G1 X184.566 Y123.072 E20.20475
G1 X184.715 Y123.217 E20.20907
G1 X184.918 Y123.377 E20.21444
G1 X185.084 Y123.493 E20.21865
G1 X185.263 Y123.595 E20.22293
G1 X185.495 Y123.702 E20.22824
G1 X185.687 Y123.775 E20.23251
G1 X185.889 Y123.832 E20.23688
G1 X186.138 Y123.878 E20.24214
G1 X186.337 Y123.903 E20.24631
G1 X186.541 Y123.91 E20.25055
G1 X186.745 Y123.903 E20.2548
G1 X187.002 Y123.871 E20.26018
G1 X187.201 Y123.83 E20.2644
G1 X187.399 Y123.774 E20.26868
G1 X187.64 Y123.681 E20.27405
G1 X187.824 Y123.593 E20.27829
G1 X188.001 Y123.491 E20.28254
G1 X188.215 Y123.342 E20.28796
G1 X188.371 Y123.213 E20.29217
G1 X188.519 Y123.072 E20.29641
G1 X188.687 Y122.878 E20.30175
G1 X188.81 Y122.715 E20.30599
G1 X188.92 Y122.539 E20.31031
G1 X189.037 Y122.312 E20.31562
G1 X189.117 Y122.123 E20.31988
G1 X189.182 Y121.927 E20.32418
G1 X189.24 Y121.682 E20.32941
G1 X189.275 Y121.476 E20.33375
G1 X189.289 Y121.266 E20.33813
G1 X189.287 Y121.001 E20.34364
G1 X189.24 Y120.619 E20.35164
G0 F1800 X189.338 Y120.6
G0 X190.763 Y136.688
G0 X215.721 Y138.09
G0 X215.791 Y138.16
G1 F600 X37.291 Y138.16 E24.06222
G1 X37.291 Y65.66 E25.56932
G1 X215.791 Y65.66 E29.27991
G1 X215.791 Y138.16 E30.78701
G0 F1800 X215.721 Y138.09
G0 X214.327 Y79.584
G0 X201.867 Y67.124
G0 X190.763 Y67.132
G0 X189.338 Y82.1
G0 X189.24 Y82.119
G1 F600 X189.165 Y81.842 E30.79297
G1 X189.034 Y81.495 E30.80068
G1 X188.931 Y81.301 E30.80525
G1 X188.793 Y81.081 E30.81065
G1 X188.67 Y80.921 E30.81484
G1 X188.538 Y80.767 E30.81906
G1 X188.348 Y80.588 E30.82448
G1 X188.192 Y80.459 E30.82869
G1 X188.021 Y80.341 E30.83301
G1 X187.8 Y80.214 E30.83831
G1 X187.61 Y80.125 E30.84267
G1 X187.419 Y80.054 E30.84691
G1 X187.177 Y79.985 E30.85214
G1 X186.974 Y79.943 E30.85645
G1 X186.766 Y79.919 E30.8608
G1 X186.511 Y79.912 E30.8661
G1 X186.313 Y79.92 E30.87022
G1 X186.105 Y79.943 E30.87457
G1 X185.838 Y80.002 E30.88026
G1 X185.478 Y80.121 E30.88814
G1 X185.233 Y80.242 E30.89382
G1 X185.058 Y80.344 E30.89803
G1 X184.888 Y80.462 E30.90233
G1 X184.692 Y80.627 E30.90766
G1 X184.546 Y80.767 E30.91186
G1 X184.407 Y80.925 E30.91624
G1 X184.258 Y81.13 E30.9215
G1 X184.15 Y81.3 E30.92569
G1 X184.053 Y81.486 E30.93005
G1 X183.975 Y81.673 E30.93426
G1 X183.895 Y81.912 E30.9395
G1 X183.845 Y82.116 E30.94387
G1 X183.814 Y82.317 E30.9481
G1 X183.792 Y82.584 E30.95367
G1 X183.807 Y82.967 E30.96163
G1 X183.856 Y83.25 E30.9676
G1 X183.96 Y83.615 E30.97549
G1 X184.07 Y83.864 E30.98115
G1 X184.163 Y84.043 E30.98534
G1 X184.275 Y84.219 E30.98968
G1 X184.433 Y84.424 E30.99506
G1 X184.566 Y84.572 E30.9992
G1 X184.715 Y84.717 E31.00352
G1 X184.918 Y84.877 E31.00889
G1 X185.084 Y84.993 E31.0131
G1 X185.263 Y85.095 E31.01739
G1 X185.495 Y85.202 E31.0227
G1 X185.687 Y85.275 E31.02697
G1 X185.889 Y85.332 E31.03133
G1 X186.138 Y85.378 E31.03659
G1 X186.337 Y85.403 E31.04076
G1 X186.541 Y85.41 E31.04501
G1 X186.745 Y85.403 E31.04925
G1 X187.002 Y85.371 E31.05463
G1 X187.201 Y85.33 E31.05886
G1 X187.399 Y85.274 E31.06313
G1 X187.64 Y85.181 E31.0685
G1 X187.824 Y85.093 E31.07274
G1 X188.001 Y84.991 E31.07699
G1 X188.215 Y84.842 E31.08241
G1 X188.371 Y84.713 E31.08662
G1 X188.519 Y84.572 E31.09087
G1 X188.687 Y84.378 E31.0962
G1 X188.81 Y84.215 E31.10045
G1 X188.92 Y84.039 E31.10476
G1 X189.037 Y83.812 E31.11007
G1 X189.117 Y83.623 E31.11434
G1 X189.182 Y83.427 E31.11863
G1 X189.24 Y83.182 E31.12386
G1 X189.275 Y82.976 E31.12821
G1 X189.289 Y82.766 E31.13258
G1 X189.287 Y82.501 E31.13809
G1 X189.24 Y82.119 E31.14609
G0 F1800 X189.338 Y82.1
G0 X190.721 Y67.09
G0 X190.791 Y67.16
G1 F600 X190.791 Y89.66 E31.61381
G1 X193.791 Y89.66 E31.67617
G1 X193.791 Y114.16 E32.18547
G1 X190.791 Y114.16 E32.24783
G1 X190.791 Y136.66 E32.71555
G1 X201.852 Y136.66 E32.94549
G1 X214.291 Y124.221 E33.31117
G1 X214.291 Y79.599 E34.23875
G1 X201.852 Y67.16 E34.60443
G1 X190.791 Y67.16 E34.83437
G0 F1800 X191.291 Y67.66
;TYPE:WALL-OUTER
G1 F600 X191.291 Y89.16 E35.2813
G1 X194.291 Y89.16 E35.34366
G1 X194.291 Y114.66 E35.87375
G1 X191.291 Y114.66 E35.93611
G1 X191.291 Y136.16 E36.38304
G1 X201.645 Y136.16 E36.59828
G1 X213.791 Y124.014 E36.95534
G1 X213.791 Y79.806 E37.87432
G1 X201.645 Y67.66 E38.23139
G1 X191.291 Y67.66 E38.44663
G0 F1800 X191.291 Y67.91
G0 X190.691 Y67.91
G0 X189.327 Y82.059
G0 X188.748 Y82.215
G1 F600 X188.689 Y81.996 E38.45134
G1 X188.577 Y81.701 E38.4579
G1 X188.498 Y81.551 E38.46142
G1 X188.382 Y81.367 E38.46595
G1 X188.282 Y81.236 E38.46937
G1 X188.176 Y81.113 E38.47275
G1 X188.017 Y80.963 E38.47729
G1 X187.89 Y80.858 E38.48072
G1 X187.755 Y80.765 E38.48412
G1 X187.568 Y80.658 E38.4886
G1 X187.416 Y80.586 E38.4921
G1 X187.264 Y80.53 E38.49547
G1 X187.057 Y80.471 E38.49994
G1 X186.894 Y80.437 E38.5034
G1 X186.73 Y80.418 E38.50683
G1 X186.515 Y80.412 E38.51131
G1 X186.351 Y80.419 E38.51472
G1 X186.187 Y80.437 E38.51815
G1 X185.971 Y80.485 E38.52275
G1 X185.668 Y80.585 E38.52938
G1 X185.469 Y80.683 E38.53399
G1 X185.326 Y80.766 E38.53743
G1 X185.192 Y80.859 E38.54082
G1 X185.026 Y80.999 E38.54533
G1 X184.907 Y81.113 E38.54876
G1 X184.798 Y81.237 E38.55219
G1 X184.672 Y81.411 E38.55666
G1 X184.583 Y81.551 E38.5601
G1 X184.506 Y81.698 E38.56355
G1 X184.444 Y81.848 E38.56693
G1 X184.376 Y82.051 E38.57138
G1 X184.336 Y82.214 E38.57487
G1 X184.311 Y82.376 E38.57827
G1 X184.293 Y82.595 E38.58284
G1 X184.305 Y82.914 E38.58948
G1 X184.344 Y83.138 E38.59421
G1 X184.431 Y83.444 E38.60082
G1 X184.521 Y83.647 E38.60543
G1 X184.597 Y83.793 E38.60886
G1 X184.685 Y83.932 E38.61228
G1 X184.818 Y84.104 E38.6168
G1 X184.927 Y84.226 E38.6202
G1 X185.045 Y84.341 E38.62362
G1 X185.215 Y84.475 E38.62812
G1 X185.351 Y84.569 E38.63156
G1 X185.493 Y84.65 E38.63496
G1 X185.689 Y84.741 E38.63945
G1 X185.844 Y84.8 E38.6429
G1 X186.003 Y84.845 E38.64633
G1 X186.214 Y84.884 E38.65079
G1 X186.377 Y84.904 E38.65421
G1 X186.541 Y84.91 E38.65762
G1 X186.705 Y84.904 E38.66103
G1 X186.921 Y84.877 E38.66555
G1 X187.082 Y84.844 E38.66897
G1 X187.24 Y84.799 E38.67238
G1 X187.442 Y84.721 E38.67689
G1 X187.591 Y84.65 E38.68032
G1 X187.733 Y84.568 E38.68373
G1 X187.912 Y84.444 E38.68825
G1 X188.038 Y84.339 E38.69166
G1 X188.157 Y84.226 E38.69507
G1 X188.298 Y84.063 E38.69955
G1 X188.398 Y83.931 E38.703
G1 X188.485 Y83.792 E38.7064
G1 X188.584 Y83.599 E38.71091
G1 X188.649 Y83.447 E38.71435
G1 X188.7 Y83.291 E38.71776
G1 X188.75 Y83.082 E38.72223
G1 X188.778 Y82.917 E38.72571
G1 X188.789 Y82.752 E38.72915
G1 X188.787 Y82.534 E38.73368
G1 X188.748 Y82.215 E38.74036
G0 F1800 X188.689 Y81.996
G0 X188.681 Y81.974
G0 X189.242 Y81.763
G0 X189.29 Y82.331
G0 X189.327 Y120.559
G0 X188.748 Y120.715
G1 F600 X188.689 Y120.496 E38.74507
G1 X188.577 Y120.201 E38.75163
G1 X188.498 Y120.051 E38.75516
G1 X188.382 Y119.867 E38.75968
G1 X188.282 Y119.736 E38.7631
G1 X188.176 Y119.613 E38.76648
G1 X188.017 Y119.463 E38.77102
G1 X187.89 Y119.358 E38.77445
G1 X187.755 Y119.265 E38.77786
G1 X187.568 Y119.158 E38.78233
G1 X187.416 Y119.086 E38.78583
G1 X187.264 Y119.03 E38.7892
G1 X187.057 Y118.971 E38.79367
G1 X186.894 Y118.937 E38.79713
G1 X186.73 Y118.918 E38.80057
G1 X186.515 Y118.912 E38.80504
G1 X186.351 Y118.919 E38.80845
G1 X186.187 Y118.937 E38.81188
G1 X185.971 Y118.985 E38.81648
G1 X185.668 Y119.085 E38.82311
G1 X185.469 Y119.183 E38.82772
G1 X185.326 Y119.266 E38.83116
G1 X185.192 Y119.359 E38.83455
G1 X185.026 Y119.499 E38.83906
G1 X184.907 Y119.613 E38.84249
G1 X184.798 Y119.737 E38.84592
G1 X184.672 Y119.911 E38.85039
G1 X184.583 Y120.051 E38.85384
G1 X184.506 Y120.198 E38.85729
G1 X184.444 Y120.348 E38.86066
G1 X184.376 Y120.551 E38.86511
G1 X184.336 Y120.714 E38.8686
G1 X184.311 Y120.876 E38.87201
G1 X184.293 Y121.095 E38.87657
G1 X184.305 Y121.414 E38.88321
G1 X184.344 Y121.638 E38.88794
G1 X184.431 Y121.944 E38.89455
G1 X184.521 Y122.147 E38.89917
G1 X184.597 Y122.293 E38.90259
G1 X184.685 Y122.432 E38.90601
G1 X184.818 Y122.604 E38.91053
G1 X184.927 Y122.726 E38.91393
G1 X185.045 Y122.841 E38.91735
G1 X185.215 Y122.975 E38.92185
G1 X185.351 Y123.069 E38.92529
G1 X185.493 Y123.15 E38.92869
G1 X185.689 Y123.241 E38.93318
G1 X185.844 Y123.3 E38.93663
G1 X186.003 Y123.345 E38.94006
G1 X186.214 Y123.384 E38.94452
G1 X186.377 Y123.404 E38.94794
G1 X186.541 Y123.41 E38.95135
G1 X186.705 Y123.404 E38.95476
G1 X186.921 Y123.377 E38.95929
G1 X187.082 Y123.344 E38.9627
G1 X187.24 Y123.299 E38.96612
G1 X187.442 Y123.221 E38.97062
G1 X187.591 Y123.15 E38.97405
G1 X187.733 Y123.068 E38.97746
G1 X187.912 Y122.944 E38.98198
G1 X188.038 Y122.839 E38.98539
G1 X188.157 Y122.726 E38.9888
G1 X188.298 Y122.563 E38.99329
G1 X188.398 Y122.431 E38.99673
G1 X188.485 Y122.292 E39.00014
G1 X188.584 Y122.099 E39.00465
G1 X188.649 Y121.947 E39.00808
G1 X188.7 Y121.791 E39.01149
G1 X188.75 Y121.582 E39.01596
G1 X188.778 Y121.417 E39.01944
G1 X188.789 Y121.252 E39.02288
G1 X188.787 Y121.034 E39.02741
G1 X188.748 Y120.715 E39.03409
G0 F1800 X188.689 Y120.496
G0 X188.681 Y120.474
G0 X189.242 Y120.263
G0 X190.763 Y136.688
G0 X215.721 Y138.09
G0 X216.291 Y138.66
G1 F600 X36.791 Y138.66 E42.76546
G1 X36.791 Y65.16 E44.29335
G1 X216.291 Y65.16 E48.02472
G1 X216.291 Y138.66 E49.55261
G0 F1800 X216.041 Y138.66
G0 X215.721 Y138.09
G0 X158.763 Y136.688
G0 X154.391 Y136.16
G0 X153.791 Y136.16
G1 F600 X153.791 Y132.159 E49.63578
G1 X159.291 Y132.159 E49.75011
G1 X159.291 Y136.16 E49.83328
G1 X181.791 Y136.16 E50.301
G1 X181.791 Y114.66 E50.74794
G1 X178.791 Y114.66 E50.8103
G1 X178.791 Y89.16 E51.34038
G1 X181.791 Y89.16 E51.40274
G1 X181.791 Y67.66 E51.84968
G1 X159.291 Y67.66 E52.3174
G1 X159.291 Y71.66 E52.40055
G1 X153.791 Y71.66 E52.51488
G1 X153.791 Y67.66 E52.59803
G1 X51.437 Y67.66 E54.72572
G1 X39.291 Y79.806 E55.08279
G1 X39.291 Y124.014 E56.00177
G1 X51.437 Y136.16 E56.35884
G1 X153.791 Y136.16 E58.48653
G0 F1800 X153.791 Y135.91
G0 X154.391 Y135.91
G0 X154.781 Y137.15
;TYPE:SKIN
G1 F600 X154.781 Y133.149 E58.5697
G1 X158.301 Y133.149 E58.64287
G1 X158.301 Y137.15 E58.72605
G1 X182.781 Y137.15 E59.23493
G1 X182.781 Y113.67 E59.72302
G1 X179.781 Y113.67 E59.78538
G1 X179.781 Y90.15 E60.2743
G1 X182.781 Y90.15 E60.33667
G1 X182.781 Y66.67 E60.82476
G1 X158.301 Y66.67 E61.33364
G1 X158.301 Y70.67 E61.41679
G1 X154.781 Y70.67 E61.48996
G1 X154.781 Y66.67 E61.57311
G1 X51.027 Y66.67 E63.72991
G1 X38.301 Y79.396 E64.10403
G1 X38.301 Y124.424 E65.04005
G1 X51.027 Y137.15 E65.41417
G1 X154.781 Y137.15 E67.57097
G0 F1800 X182.319 Y136.688
G0 X183.629 Y122.576
G1 F600 X183.738 Y122.788 E67.57592
G1 X183.873 Y123.001 E67.58116
G1 X184.057 Y123.238 E67.5874
G1 X184.213 Y123.411 E67.59224
G1 X184.391 Y123.586 E67.59743
G1 X184.626 Y123.771 E67.60365
G1 X184.822 Y123.908 E67.60862
G1 X185.039 Y124.032 E67.61382
G1 X185.305 Y124.154 E67.6199
G1 X185.533 Y124.241 E67.62497
G1 X185.778 Y124.31 E67.63026
G1 X186.064 Y124.362 E67.63631
G1 X186.298 Y124.391 E67.64121
G1 X186.541 Y124.4 E67.64626
G1 X186.784 Y124.391 E67.65132
G1 X187.082 Y124.355 E67.65756
G1 X187.317 Y124.306 E67.66255
G1 X187.554 Y124.239 E67.66767
G1 X187.834 Y124.132 E67.6739
G1 X188.053 Y124.026 E67.67896
G1 X188.264 Y123.905 E67.68401
G1 X188.511 Y123.732 E67.69028
G1 X188.696 Y123.58 E67.69526
G1 X188.874 Y123.411 E67.70036
G1 X189.068 Y123.186 E67.70654
G1 X189.214 Y122.993 E67.71157
G1 X189.346 Y122.782 E67.71674
G1 X189.482 Y122.52 E67.72288
G1 X189.576 Y122.296 E67.72793
G1 X189.654 Y122.061 E67.73307
G1 X189.72 Y121.78 E67.73907
G1 X189.763 Y121.533 E67.74429
G1 X189.779 Y121.28 E67.74956
G1 X189.777 Y120.969 E67.75602
G1 X189.722 Y120.525 E67.76532
G1 X189.632 Y120.191 E67.77251
G1 X189.481 Y119.793 E67.78136
G1 X189.356 Y119.556 E67.78693
G1 X189.195 Y119.301 E67.7932
G1 X189.05 Y119.112 E67.79815
G1 X188.893 Y118.928 E67.80318
G1 X188.673 Y118.72 E67.80947
G1 X188.488 Y118.567 E67.81446
G1 X188.283 Y118.426 E67.81964
G1 X188.027 Y118.279 E67.82577
G1 X187.8 Y118.172 E67.83099
G1 X187.572 Y118.088 E67.83604
G1 X187.294 Y118.009 E67.84205
G1 X187.052 Y117.959 E67.84718
G1 X186.801 Y117.929 E67.85244
